!!!!SEGMENT:27Isonomatugae_c.krn
!!!OTL: 磯の松ケ枝
!!!OTL: 松ひとき
!!!OPR:Eiga Banso Kyokusyu,jidai-geki,zenpen
!!!YOY:1929
!!!ONB:Tabibito
**kern
*clefG2
*C:
*M2/4
=1
4ff#
4ff#
=2
4f#
4r
=3
4ff#
4ff#
=4
4f#
4r
=5
4ff#
4ff#
=6
4f#
4r
=7
4ff#
4ff#
=8
4f#
4r
=9
4cc#
4ee
=10
4ff#
4ee
=11
4cc#
4b
=12
4a
4b
=13
4cc#
4r
=14
4cc#
4r
=15
4cc#
4r
=16
2r
=17
4cc#
4cc#
=18
4b
4a
=19
4b
4cc#
=20
4b
4r
=21
4f#
4f#
=22
4r
4c#
=23
4e
4r
=24
2r
=25
4e
4r
=26
4f#
4e
=27
2f#
=28
4a
4b
=29
4B
4r
=30
4ee
4r
=31
4cc#
4cc#
=32
4b
4a
=33
4b
4cc#
=34
4.b
8gn
=35
4f#
4r
=36
2r
=37
4gn
4g
=38
4r
4b
=39
4cc#
4r
=40
4b
4r
=41
4gn
4r
=42
4f#
4r
=43
4ee
4cc#
=44
4.b
8gn
=45
4f#
4a
=46
4b
4r
=47
4b
4r
=48
4b
4r
=49
2r
=50
4ff#
4ff#
=51
4ee
4cc#
=52
4cc#
4r
=53
2r
=54
4cc#
4ee
=55
4cc#
4b
=56
2a
=57
2r
=58
4.b
8f#X
=59
4a
4b
=60
4a
4b
=61
4cc#
4cc#
=62
4cc#
4cc#
=63
4b
4b
=64
4r
4gn
=65
4f#
4f#
=66
4r
4c#
=67
4e
4r
=68
2r
=69
4e
4f#
=70
4c#
4e
=71
4f#
4e
=72
4f#
4b
=73
4B
4r
=74
4b
4b
=75
4f#
4r
==
*-
!!!ENC: Yukiko Yoden
!!!END: 2023/06/11
